X:0966
T:La Reveil du Peuple.
M:C
L:1/8
Q:1/4=100
I: ||
Z:Jack Campin * www.campin.me.uk * 2009
K:D
zAde|f2 f2 e2 fe |d4  A2 dc |B2 cd e2 fe |d4
zAde|f2 f2 e2 fe |d4  Ad`ef |e2 A2 A2 cB |A4
zccd|e2 fd c2 d2 |e3c AB`AG |F2 A2 d3  f |e4
zefg|a3  g f>ed>c|B4  B>cd>e|e2 a2 e2 f>f|d4|]

